src/lib/packages/icons/src/assets/filled/file.svg

<svg xmlns="http://www.w3.org/2000/svg" width="24" height="24" fill="none"><path fill="currentColor" d="M14.75 6V3.75l4.5 4.5H17c-1.58 0-2.25-.67-2.25-2.25ZM17 9.75c-2.42 0-3.75-1.33-3.75-3.75V3H8C6 3 5 4 5 6v12c0 2 1 3 3 3h9c2 0 3-1 3-3V9.75h-3Z"/></svg>

<svg width="24" height="24" viewBox="0 0 24 24" fill="none" xmlns="http://www.w3.org/2000/svg">
<path d="M14.75 6V3.75L19.25 8.25H17C15.42 8.25 14.75 7.58 14.75 6ZM17 9.75C14.58 9.75 13.25 8.42 13.25 6V3H8C6 3 5 4 5 6V18C5 20 6 21 8 21H17C19 21 20 20 20 18V9.75H17Z" fill="currentColor"/>
</svg>
